kora/panel/16/fcitx-skk-panel.svg

<svg xmlns="http://www.w3.org/2000/svg" width="16" height="16" version="1.1">
 <defs>
  <style id="current-color-scheme" type="text/css">
   .ColorScheme-Text { color:#dfdfdf; } .ColorScheme-Highlight { color:#4285f4; }
  </style>
 </defs>
 <path style="fill:currentColor" class="ColorScheme-Text" d="M 2,0 C 0.892,0 0,0.892 0,2 V 14 C 0,15.108 0.892,16 2,16 H 14 C 15.108,16 16,15.108 16,14 V 2 C 16,0.892 15.108,0 14,0 Z M 6,4 H 7 V 8.293 L 9.293,6 H 10 V 4 H 11 V 8.293 L 13.293,6 H 14.707 L 11.707,9 14.707,12 H 13.293 L 11,9.707 V 12 H 9.293 L 7,9.707 V 12 H 6 V 10 C 6,10.583 5.8455,11.111 5.4785,11.479 5.1105,11.846 4.583,12 4,12 3.417,12 2.8895,11.846 2.5215,11.479 2.1545,11.111 2,10.583 2,10 H 3 C 3,10.417 3.0955,10.639 3.2285,10.771 3.3605,10.904 3.583,11 4,11 4.417,11 4.6395,10.904 4.7715,10.771 4.9045,10.639 5,10.417 5,10 5,9.583 4.9045,9.3605 4.7715,9.2285 4.6395,9.0955 4.417,9 4,9 3.417,9 2.8895,8.8455 2.5215,8.4785 2.1545,8.1105 2,7.583 2,7 2,6.417 2.1545,5.8895 2.5215,5.5215 2.8895,5.1545 3.417,5 4,5 4.583,5 5.1105,5.1545 5.4785,5.5215 5.8455,5.8895 6,6.417 6,7 Z M 6,7 H 5 C 5,6.583 4.9045,6.3605 4.7715,6.2285 4.6395,6.0955 4.417,6 4,6 3.583,6 3.3605,6.0955 3.2285,6.2285 3.0955,6.3605 3,6.583 3,7 3,7.417 3.0955,7.6395 3.2285,7.7715 3.3605,7.9045 3.583,8 4,8 4.583,8 5.1105,8.1545 5.4785,8.5215 5.8455,8.8895 6,9.417 6,10 Z M 10,6.707 7.707,9 10,11.293 Z"/>
</svg>

<svg xmlns="http://www.w3.org/2000/svg" width="16" height="16" viewBox="0 0 16 16">
 <defs>
  <style id="current-color-scheme" type="text/css">
   .ColorScheme-Text { color:#dfdfdf; } .ColorScheme-Highlight { color:#4285f4; } .ColorScheme-NeutralText { color:#ff9800; } .ColorScheme-PositiveText { color:#4caf50; } .ColorScheme-NegativeText { color:#f44336; }
  </style>
 </defs>
 <path style="fill:currentColor" class="ColorScheme-Text" d="m6 4h1v4.293l2.293-2.293h.707v-2h1v4.293l2.293-2.293h1.414l-3 3 3 3h-1.414l-2.293-2.293v2.293h-1.707l-2.293-2.293v2.293h-1v-2c0 .583-.154 1.111-.521 1.479-.368.367-.896.521-1.479.521s-1.11-.154-1.478-.521c-.367-.368-.522-.896-.522-1.479h1c0 .417.096.639.229.771.132.133.354.229.771.229s.64-.096.772-.229c.133-.132.228-.354.228-.771s-.095-.64-.228-.771c-.132-.133-.355-.229-.772-.229-.583 0-1.11-.155-1.478-.521-.367-.368-.522-.896-.522-1.479s.155-1.11.522-1.478c.368-.367.895-.522 1.478-.522s1.111.155 1.479.522c.367.368.521.895.521 1.478zm4 2.707-2.293 2.293 2.293 2.293zm-4 .293h-1c0-.417-.096-.639-.229-.771-.131-.133-.354-.229-.771-.229s-.64.096-.772.229c-.132.132-.228.354-.228.771s.096.64.229.772c.132.133.354.228.771.228.583 0 1.111.155 1.479.522.367.368.521.895.521 1.478z" fill="#dfdfdf"/>
</svg>
